; generated by PrusaSlicer 2.7.1+MacOS-arm64 on 2024-01-24 at 17:24:01 UTC


;
;
; 

; external perimeters extrusion width = 0.68mm
; perimeters extrusion width = 0.68mm
; infill extrusion width = 0.68mm
; solid infill extrusion width = 0.68mm
; top infill extrusion width = 0.60mm
; first layer extrusion width = 0.65mm

M73 P0 R50
M73 Q0 S50
M201 X1000 Y1000 Z200 E5000 ; sets maximum accelerations, mm/sec^2
M203 X200 Y200 Z12 E120 ; sets maximum feedrates, mm / sec
M204 S1250 T1250 ; sets acceleration (S) and retract acceleration (R), mm/sec^2
M205 X8.00 Y8.00 Z0.40 E4.50 ; sets the jerk limits, mm/sec
M205 S0 T0 ; sets the minimum extruding and travel feed rate, mm/sec

; printing object Bender+Jig.stl id:0 copy 0
; stop printing object Bender+Jig.stl id:0 copy 0

;TYPE:Custom
M862.3 P "MK3S" ; printer model check
M862.1 P0.6 ; nozzle diameter check
M115 U3.13.2 ; tell printer latest fw version
G90 ; use absolute coordinates
M83 ; extruder relative mode
M104 S215 ; set extruder temp
M140 S60 ; set bed temp
M190 S60 ; wait for bed temp
M109 S215 ; wait for extruder temp
G28 W ; home all without mesh bed level
G80 X91.9894 Y71.9894 W66.0212 H66.0212 ; mesh bed levelling

G1 Z0.2 F720
G1 Y-3 F1000 ; go outside print area
G92 E0
G1 X60 E9 F1000 ; intro line
G1 X100 E12.5 F1000 ; intro line

G92 E0
M221 S95
G21 ; set units to millimeters
G90 ; use absolute coordinates
M83 ; use relative distances for extrusion
M900 K0.04 ; Filament gcode LA 1.5
M900 K18 ; Filament gcode LA 1.0

M107
;LAYER_CHANGE
;Z:0.2
;HEIGHT:0.2
;BEFORE_LAYER_CHANGE
G92 E0.0
;0.2


G1 E-.8 F2100
G1 Z.2 F720
;AFTER_LAYER_CHANGE
;0.2
G1 X94.749 Y90.222 F10800
G1 Z.2 F720
G1 E.8 F1500
M204 S800
;TYPE:Skirt/Brim
;WIDTH:0.65
G1 F1200
G1 X110.222 Y74.749 E1.10459
G1 X111.458 Y73.801 E.07863
G1 X112.343 Y73.316 E.05094
G1 X113.476 Y72.871 E.06145
G1 X114.456 Y72.631 E.05093
G1 X115.342 Y72.52 E.04507
G1 X121.34 Y72.294 E.30299
G1 X128.66 Y72.294 E.36951
G1 X134.248 Y72.495 E.28226
G1 X135.544 Y72.631 E.06578
G1 X136.847 Y72.981 E.06811
G1 X137.963 Y73.467 E.06144
G1 X138.826 Y73.991 E.05096
G1 X139.778 Y74.749 E.06143
G1 X155.251 Y90.222 E1.10459
G1 X156.199 Y91.458 E.07863
G1 X156.684 Y92.343 E.05094
G1 X157.129 Y93.476 E.06145
G1 X157.369 Y94.456 E.05093
G1 X157.505 Y95.753 E.06583
G1 X157.698 Y101.162 E.27321
G1 X157.707 Y108.241 E.35734
G1 X157.501 Y114.324 E.30724
G1 X157.302 Y115.878 E.07908
G1 X157.019 Y116.847 E.05096
G1 X156.533 Y117.963 E.06144
G1 X156.009 Y118.826 E.05096
G1 X155.251 Y119.778 E.06143
G1 X139.778 Y135.251 E1.10459
G1 X138.826 Y136.009 E.06143
G1 X137.963 Y136.533 E.05096
G1 X136.524 Y137.129 E.07862
G1 X134.827 Y137.463 E.08731
G1 X128.818 Y137.701 E.30357
G1 X121.34 Y137.706 E.37748
G1 X115.676 Y137.501 E.2861
G1 X114.122 Y137.302 E.07908
G1 X113.153 Y137.019 E.05096
G1 X112.037 Y136.533 E.06144
G1 X111.174 Y136.009 E.05096
G1 X110.222 Y135.251 E.06143
G1 X94.749 Y119.778 E1.10459
G1 X93.991 Y118.826 E.06143
G1 X93.467 Y117.963 E.05096
G1 X92.871 Y116.524 E.07862
G1 X92.537 Y114.827 E.08731
G1 X92.299 Y108.818 E.30357
G1 X92.294 Y101.34 E.37748
G1 X92.499 Y95.676 E.2861
G1 X92.698 Y94.122 E.07908
G1 X92.981 Y93.153 E.05096
G1 X93.467 Y92.037 E.06144
G1 X93.991 Y91.174 E.05096
G1 X94.693 Y90.293 E.05686
M204 S1000
;WIPE_START
G1 F8640
G1 X94.749 Y90.222 E-.02088
G1 X97.135 Y87.836 E-.77912
;WIPE_END
G1 Z.6 F720
G1 X96.987 Y92.311 F10800
G1 Z.2 F720
G1 E.8 F1500
M204 S800
G1 F1200
G1 X98.023 Y91.435 E.06849
G1 X99.297 Y90.823 E.07135
G1 X100.959 Y90.556 E.08497
G1 X102.396 Y88.374 E.13189
G1 X103.326 Y87.179 E.07644
G1 X105.241 Y85.076 E.14358
G1 X107.488 Y83.075 E.15188
G1 X108.687 Y82.169 E.07586
G1 X110.551 Y80.961 E.11212
G1 X110.716 Y79.664 E.066
G1 X111.187 Y78.443 E.06606
G1 X112.103 Y77.187 E.07847
G1 X113.338 Y76.24 E.07856
G1 X114.52 Y75.755 E.06449
G1 X115.798 Y75.55 E.06534
G1 X118.817 Y75.537 E.1524
G1 X121.417 Y75.347 E.1316
G1 X128.607 Y75.348 E.36294
G1 X131.191 Y75.537 E.13079
G1 X134.657 Y75.594 E.17498
G1 X135.938 Y75.906 E.06655
G1 X137.143 Y76.543 E.0688
G1 X137.952 Y77.245 E.05407
G1 X138.623 Y78.112 E.05534
G1 X139.242 Y79.513 E.07732
G1 X139.449 Y80.958 E.07369
G1 X141.924 Y82.619 E.15046
G1 X143.12 Y83.575 E.07729
G1 X145.183 Y85.506 E.14264
G1 X147.188 Y87.823 E.15467
G1 X149.054 Y90.552 E.16688
G1 X150.499 Y90.76 E.07369
G1 X151.869 Y91.365 E.0756
G1 X152.797 Y92.089 E.05941
G1 X153.551 Y92.998 E.05962
G1 X154.127 Y94.148 E.06493
G1 X154.413 Y95.413 E.06547
G1 X154.46 Y98.769 E.16942
G1 X154.646 Y101.263 E.12624
G1 X154.645 Y108.749 E.37788
M73 P0 R49
G1 X154.46 Y111.196 E.12387
G1 X154.452 Y114.145 E.14886
G1 X154.331 Y115.145 E.05085
G1 X153.823 Y116.538 E.07485
G1 X153.013 Y117.689 E.07105
G1 X151.977 Y118.565 E.06849
G1 X150.703 Y119.177 E.07135
G1 X149.057 Y119.444 E.08417
G1 X147.167 Y122.205 E.1689
G1 X145.185 Y124.491 E.15273
G1 X143.12 Y126.425 E.14282
G1 X141.925 Y127.381 E.07725
G1 X139.467 Y129.032 E.14947
G1 X139.293 Y130.299 E.06456
G1 X138.783 Y131.613 E.07115
G1 X137.91 Y132.801 E.07442
G1 X137.093 Y133.48 E.05362
G1 X136.424 Y133.882 E.0394
G1 X135.442 Y134.257 E.05306
G1 X134.425 Y134.432 E.05209
G1 X131.185 Y134.463 E.16356
G1 X128.581 Y134.653 E.1318
G1 X121.419 Y134.653 E.36153
G1 X118.818 Y134.463 E.13165
G1 X115.852 Y134.452 E.14972
G1 X114.855 Y134.331 E.0507
G1 X113.465 Y133.825 E.07467
G1 X112.322 Y133.023 E.07048
G1 X111.415 Y131.946 E.07108
G1 X110.829 Y130.723 E.06846
G1 X110.556 Y129.042 E.08597
G1 X108.689 Y127.832 E.11231
G1 X107.532 Y126.96 E.07313
G1 X105.244 Y124.927 E.1545
G1 X103.328 Y122.824 E.14361
G1 X102.398 Y121.628 E.07648
G1 X100.973 Y119.471 E.1305
G1 X99.521 Y119.245 E.07418
G1 X98.087 Y118.607 E.07923
G1 X96.947 Y117.644 E.07533
G1 X96.068 Y116.326 E.07997
G1 X95.729 Y115.39 E.05025
G1 X95.568 Y114.424 E.04944
G1 X95.537 Y111.185 E.16351
G1 X95.347 Y108.581 E.1318
G1 X95.347 Y101.419 E.36153
G1 X95.537 Y98.818 E.13165
G1 X95.548 Y95.852 E.14972
G1 X95.669 Y94.854 E.05075
G1 X96.177 Y93.462 E.0748
G1 X96.935 Y92.385 E.06648
M204 S1000
G1 X97.41 Y92.749 F10800
M204 S800
G1 F1200
G1 X98.384 Y91.925 E.0644
G1 X99.519 Y91.389 E.06336
G1 X100.656 Y91.172 E.05843
G1 X101.302 Y91.159 E.03262
G1 X102.889 Y88.728 E.14655
G1 X103.8 Y87.558 E.07485
G1 X105.674 Y85.502 E.14043
G1 X107.861 Y83.554 E.14784
G1 X109.034 Y82.667 E.07423
G1 X111.156 Y81.307 E.12723
G1 X111.296 Y79.846 E.07409
G1 X111.704 Y78.763 E.05842
G1 X112.519 Y77.63 E.07045
G1 X113.313 Y76.978 E.05186
G1 X113.642 Y76.766 E.01976
G1 X114.715 Y76.331 E.05845
G1 X115.823 Y76.157 E.05662
G1 X118.841 Y76.144 E.15235
G1 X121.428 Y75.954 E.13094
G1 X128.596 Y75.955 E.36183
G1 X131.165 Y76.144 E.13003
G1 X134.551 Y76.193 E.17094
G1 X135.692 Y76.462 E.05918
M73 Q1 S50
G1 X136.775 Y77.027 E.06166
G1 X137.494 Y77.646 E.04789
G1 X138.084 Y78.394 E.04809
G1 X138.671 Y79.722 E.07329
M73 P1 R49
G1 X138.835 Y80.743 E.0522
G1 X138.845 Y81.295 E.02787
G1 X141.552 Y83.098 E.16418
G1 X142.722 Y84.034 E.07563
G1 X144.752 Y85.933 E.14032
G1 X146.704 Y88.189 E.15059
G1 X147.551 Y89.344 E.0723
G1 X148.692 Y91.156 E.10809
G1 X149.28 Y91.167 E.02969
G1 X150.358 Y91.352 E.05521
G1 X151.585 Y91.902 E.06788
G1 X152.392 Y92.543 E.05202
G1 X153.059 Y93.355 E.05304
G1 X153.566 Y94.382 E.05781
G1 X153.814 Y95.512 E.0584
G1 X153.853 Y98.795 E.16573
G1 X154.038 Y101.275 E.12554
G1 X154.038 Y108.737 E.37667
G1 X153.853 Y111.172 E.12327
G1 X153.845 Y114.125 E.14906
G1 X153.733 Y115.037 E.04638
G1 X153.302 Y116.225 E.06379
G1 X152.59 Y117.251 E.06304
G1 X151.616 Y118.075 E.0644
G1 X150.481 Y118.611 E.06336
G1 X149.344 Y118.828 E.05843
G1 X148.694 Y118.841 E.03282
G1 X147.551 Y120.656 E.10827
G1 X146.682 Y121.839 E.0741
G1 X144.754 Y124.065 E.14865
G1 X142.723 Y125.966 E.14043
G1 X141.552 Y126.902 E.07567
G1 X138.844 Y128.706 E.16425
G1 X138.714 Y130.116 E.07148
G1 X138.267 Y131.29 E.06341
G1 X137.492 Y132.359 E.06665
G1 X136.723 Y132.998 E.05047
G1 X136.137 Y133.346 E.0344
G1 X135.257 Y133.678 E.04748
G1 X134.349 Y133.829 E.04646
G1 X131.16 Y133.856 E.16098
G1 X128.57 Y134.046 E.13109
G1 X121.43 Y134.046 E.36042
G1 X118.842 Y133.856 E.13099
G1 X115.872 Y133.845 E.14992
M73 Q1 S49
G1 X114.964 Y133.733 E.04618
G1 X113.777 Y133.302 E.06375
G1 X112.756 Y132.597 E.06263
G1 X111.945 Y131.647 E.06305
G1 X111.394 Y130.497 E.06437
G1 X111.172 Y129.347 E.05912
G1 X111.159 Y128.694 E.03297
G1 X109.035 Y127.334 E.12731
G1 X107.904 Y126.48 E.07154
G1 X105.677 Y124.501 E.15039
G1 X103.802 Y122.444 E.1405
G1 X102.892 Y121.275 E.07478
G1 X101.302 Y118.846 E.14655
G1 X99.728 Y118.673 E.07993
G1 X98.44 Y118.112 E.07092
G1 X97.424 Y117.267 E.06671
G1 X96.624 Y116.081 E.07221
G1 X96.323 Y115.262 E.04405
G1 X96.171 Y114.348 E.04677
G1 X96.144 Y111.16 E.16093
G1 X95.954 Y108.57 E.13109
G1 X95.954 Y101.43 E.36042
G1 X96.144 Y98.842 E.13099
G1 X96.155 Y95.872 E.14992
G1 X96.267 Y94.963 E.04623
G1 X96.698 Y93.774 E.06384
G1 X97.359 Y92.823 E.05846
M204 S1000
G1 X97.833 Y93.186 F10800
M204 S800
G1 F1200
G1 X98.744 Y92.416 E.06021
G1 X99.737 Y91.956 E.05524
G1 X100.737 Y91.774 E.05131
G1 X101.644 Y91.764 E.04579
G1 X103.374 Y89.094 E.1606
G1 X104.264 Y87.95 E.07317
G1 X106.106 Y85.928 E.13807
G1 X108.234 Y84.033 E.14384
G1 X109.38 Y83.166 E.07254
G1 X111.762 Y81.654 E.14242
G1 X111.768 Y80.805 E.04286
G1 X111.892 Y79.966 E.04281
G1 X112.223 Y79.081 E.0477
G1 X112.937 Y78.073 E.06235
G1 X113.945 Y77.293 E.06434
G1 X114.846 Y76.924 E.04915
G1 X115.85 Y76.764 E.05132
G1 X118.865 Y76.751 E.1522
G1 X121.439 Y76.561 E.13029
G1 X128.585 Y76.562 E.36072
G1 X131.139 Y76.751 E.12928
G1 X134.449 Y76.792 E.1671
G1 X135.451 Y77.02 E.05187
G1 X136.41 Y77.513 E.05443
G1 X137.041 Y78.05 E.04183
G1 X137.547 Y78.68 E.04079
G1 X138.078 Y79.859 E.06527
G1 X138.232 Y80.816 E.04893
G1 X138.239 Y81.661 E.04266
G1 X140.013 Y82.745 E.10494
G1 X141.179 Y83.577 E.07231
G1 X142.325 Y84.493 E.07406
G1 X144.32 Y86.36 E.13793
G1 X146.219 Y88.555 E.14651
G1 X147.048 Y89.684 E.0707
G1 X148.34 Y91.761 E.12347
G1 X149.203 Y91.77 E.04357
G1 X150.215 Y91.943 E.05183
G1 X151.295 Y92.437 E.05995
G1 X151.986 Y92.995 E.04483
G1 X152.53 Y93.655 E.04317
G1 X153.004 Y94.616 E.05409
G1 X153.213 Y95.606 E.05108
G1 X153.246 Y98.82 E.16225
G1 X153.431 Y101.286 E.12483
G1 X153.431 Y108.724 E.37546
G1 X153.262 Y110.813 E.10579
G1 X153.238 Y114.104 E.16613
G1 X153.135 Y114.926 E.04182
G1 X152.746 Y115.978 E.05662
G1 X152.167 Y116.814 E.05133
G1 X151.256 Y117.584 E.06021
G1 X150.263 Y118.044 E.05524
G1 X149.263 Y118.226 E.05131
G1 X148.342 Y118.236 E.04649
G1 X147.048 Y120.316 E.12366
G1 X146.198 Y121.473 E.07247
G1 X144.322 Y123.638 E.14461
G1 X142.325 Y125.507 E.13807
G1 X141.179 Y126.423 E.07406
G1 X140.027 Y127.246 E.07147
G1 X138.238 Y128.339 E.10583
G1 X138.233 Y129.179 E.0424
G1 X138.117 Y129.998 E.04175
G1 X137.75 Y130.97 E.05245
G1 X137.073 Y131.918 E.0588
G1 X136.353 Y132.516 E.04725
G1 X135.895 Y132.789 E.02691
G1 X135.127 Y133.084 E.04153
G1 X134.274 Y133.226 E.04365
G1 X131.136 Y133.249 E.15841
G1 X128.558 Y133.439 E.13049
G1 X121.442 Y133.439 E.35921
G1 X118.865 Y133.249 E.13044
G1 X115.893 Y133.238 E.15002
G1 X115.073 Y133.135 E.04172
G1 X114.085 Y132.778 E.05303
G1 X113.191 Y132.171 E.05455
G1 X112.433 Y131.285 E.05886
G1 X111.961 Y130.277 E.05618
G1 X111.774 Y129.265 E.05195
G1 X111.764 Y128.347 E.04634
G1 X110.596 Y127.655 E.06853
G1 X108.276 Y126 E.14386
G1 X106.109 Y124.074 E.14635
G1 X104.266 Y122.053 E.13807
G1 X103.376 Y120.909 E.07317
G1 X102.558 Y119.733 E.07231
G1 X101.669 Y118.24 E.08771
G1 X100.849 Y118.235 E.04139
G1 X99.862 Y118.08 E.05043
G1 X98.728 Y117.576 E.06264
G1 X97.85 Y116.833 E.05806
G1 X97.182 Y115.837 E.06054
G1 X96.903 Y115.081 E.04068
G1 X96.774 Y114.276 E.04115
G1 X96.751 Y111.136 E.15851
G1 X96.561 Y108.558 E.13049
G1 X96.561 Y101.442 E.35921
G1 X96.751 Y98.865 E.13044
G1 X96.762 Y95.893 E.15002
G1 X96.865 Y95.074 E.04167
G1 X97.254 Y94.022 E.05662
G1 X97.781 Y93.26 E.04677
M204 S1000
G1 X98.257 Y93.622 F10800
M204 S800
G1 F1200
G1 X99.102 Y92.908 E.05584
G1 X99.949 Y92.526 E.0469
G1 X100.814 Y92.376 E.04432
G1 X102.016 Y92.37 E.06068
G1 X103.059 Y90.611 E.10323
G1 X103.858 Y89.46 E.07073
G1 X104.728 Y88.341 E.07155
G1 X106.539 Y86.354 E.13571
G1 X108.607 Y84.512 E.1398
G1 X109.727 Y83.664 E.07091
G1 X112.369 Y82 E.15761
G1 X112.372 Y80.871 E.05699
G1 X112.487 Y80.088 E.03995
G1 X112.776 Y79.334 E.04076
G1 X113.354 Y78.516 E.05056
G1 X114.054 Y77.941 E.04573
G1 X115.039 Y77.501 E.05446
G1 X115.874 Y77.371 E.04266
G1 X118.888 Y77.358 E.15214
G1 X121.45 Y77.168 E.12968
G1 X128.574 Y77.169 E.35961
G1 X131.114 Y77.358 E.12857
G1 X134.351 Y77.392 E.16341
G1 X135.213 Y77.58 E.04454
G1 X136.048 Y78.002 E.04723
G1 X136.591 Y78.459 E.03583
G1 X137.014 Y78.972 E.03356
G1 X137.485 Y79.997 E.05694
G1 X137.629 Y80.888 E.04556
G1 X137.632 Y82.017 E.05699
G1 X139.68 Y83.252 E.12072
G1 X140.807 Y84.057 E.06991
G1 X141.927 Y84.952 E.07237
G1 X143.888 Y86.787 E.13557
G1 X145.735 Y88.92 E.14243
G1 X147.321 Y91.207 E.14049
G1 X147.989 Y92.368 E.06761
G1 X149.126 Y92.372 E.05739
G1 X150.071 Y92.535 E.04841
G1 X151.001 Y92.97 E.05183
G1 X151.575 Y93.443 E.03755
G1 X152.035 Y94.009 E.03682
G1 X152.441 Y94.844 E.04687
G1 X152.613 Y95.696 E.04388
G1 X152.639 Y98.845 E.15896
G1 X152.824 Y101.298 E.12418
G1 X152.824 Y108.712 E.37425
G1 X152.639 Y111.148 E.12332
G1 X152.631 Y114.083 E.14816
G1 X152.538 Y114.814 E.0372
G1 X152.222 Y115.67 E.04606
G1 X151.743 Y116.378 E.04315
G1 X150.898 Y117.092 E.05584
G1 X150.051 Y117.474 E.0469
G1 X149.186 Y117.624 E.04432
G1 X147.99 Y117.63 E.06037
G1 X146.545 Y119.977 E.13913
G1 X145.714 Y121.106 E.07076
G1 X143.89 Y123.211 E.1406
G1 X141.928 Y125.048 E.13567
G1 X140.807 Y125.943 E.07241
G1 X139.693 Y126.739 E.06911
G1 X137.631 Y127.983 E.12156
G1 X137.629 Y129.115 E.05714
G1 X137.521 Y129.88 E.039
G1 X137.23 Y130.655 E.04179
G1 X136.652 Y131.477 E.05072
G1 X135.985 Y132.033 E.04383
G1 X134.942 Y132.505 E.05779
G1 X134.202 Y132.623 E.03783
G1 X131.112 Y132.642 E.15598
G1 X128.547 Y132.832 E.12983
G1 X121.453 Y132.832 E.3581
G1 X118.889 Y132.642 E.12978
G1 X115.915 Y132.631 E.15013
G1 X115.186 Y132.538 E.0371
G1 X114.33 Y132.222 E.04606
G1 X113.625 Y131.745 E.04297
G1 X112.923 Y130.924 E.05453
G1 X112.53 Y130.062 E.04782
G1 X112.377 Y129.188 E.04479
G1 X112.37 Y128.001 E.05992
G1 X109.728 Y126.336 E.15764
G1 X107.612 Y124.65 E.13657
G1 X106.541 Y123.648 E.07403
G1 X104.73 Y121.662 E.13567
G1 X103.86 Y120.543 E.07155
G1 X103.07 Y119.406 E.06989
G1 X102.027 Y117.632 E.10388
G1 X100.92 Y117.631 E.05588
G1 X99.999 Y117.487 E.04706
G1 X99.021 Y117.043 E.05422
G1 X98.279 Y116.401 E.04953
G1 X97.739 Y115.594 E.04902
G1 X97.484 Y114.901 E.03727
G1 X97.378 Y114.207 E.03544
G1 X97.358 Y111.111 E.15629
G1 X97.168 Y108.547 E.12978
G1 X97.168 Y101.453 E.3581
G1 X97.358 Y98.889 E.12978
G1 X97.369 Y95.915 E.15013
G1 X97.462 Y95.186 E.0371
G1 X97.778 Y94.33 E.04606
G1 X98.207 Y93.696 E.03864
M204 S1000
G1 X98.705 Y94.041 F10800
M204 S800
G1 F1200
G1 X98.731 Y94.004 E.00228
G1 X99.457 Y93.402 E.04761
G1 X100.092 Y93.117 E.03513
G1 X100.844 Y92.983 E.03856
G1 X102.38 Y92.975 E.07754
G1 X103.57 Y90.937 E.11913
G1 X104.342 Y89.826 E.06829
G1 X105.193 Y88.732 E.06996
G1 X106.971 Y86.78 E.13328
G1 X108.992 Y84.982 E.13655
G1 X110.087 Y84.154 E.0693
G1 X111.234 Y83.378 E.06991
G1 X112.975 Y82.374 E.10145
G1 X112.979 Y80.896 E.07461
G1 X113.082 Y80.215 E.03477
G1 X113.327 Y79.59 E.03389
G1 X113.771 Y78.959 E.03895
G1 X114.538 Y78.353 E.04934
G1 X115.17 Y78.094 E.03448
G1 X115.901 Y77.978 E.03736
G1 X118.912 Y77.965 E.15199
G1 X121.461 Y77.775 E.12903
G1 X128.562 Y77.776 E.35845
G1 X131.089 Y77.965 E.12792
G1 X134.259 Y77.992 E.16002
G1 X134.981 Y78.142 E.03722
G1 X135.69 Y78.493 E.03994
G1 X136.142 Y78.867 E.02961
G1 X136.518 Y79.325 E.02991
G1 X136.914 Y80.205 E.04871
G1 X137.025 Y80.953 E.03817
G1 X137.025 Y82.374 E.07173
G1 X138.233 Y83.049 E.06985
G1 X140.435 Y84.536 E.13413
G1 X141.53 Y85.411 E.07075
G1 X143.456 Y87.214 E.13318
G1 X144.413 Y88.264 E.07171
G1 X146.042 Y90.364 E.13416
G1 X147.637 Y92.975 E.15445
G1 X149.055 Y92.976 E.07158
